Sources/FrostedUI/Resources/Icons.xcassets/arrowUpFromBracket20.imageset/arrow-up-from-bracket-20.svg

<svg width="20" height="20" viewBox="0 0 20 20" fill="none" xmlns="http://www.w3.org/2000/svg" data-fui-icon="true">
  <path
    d="M18.25 10.0001C18.6642 10.0001 19 10.3359 19 10.7501V14.2501C18.9999 16.8734 16.8733 19.0001 14.25 19.0001H5.75C3.12668 19.0001 1.00005 16.8734 1 14.2501V10.7501C1 10.3359 1.33579 10.0001 1.75 10.0001C2.16421 10.0001 2.5 10.3359 2.5 10.7501V14.2501C2.50005 16.045 3.95511 17.5001 5.75 17.5001H14.25C16.0449 17.5001 17.4999 16.045 17.5 14.2501V10.7501C17.5 10.3359 17.8358 10.0001 18.25 10.0001ZM9.1748 1.34192C9.60194 0.914786 10.2781 0.888109 10.7363 1.26184L10.8252 1.34192L14.7178 5.2345C15.0106 5.52737 15.0106 6.00216 14.7178 6.29504C14.4249 6.58787 13.9501 6.58787 13.6572 6.29504L10.75 3.38782V11.2501C10.7499 11.6643 10.4142 12.0001 10 12.0001C9.58586 12.0001 9.25005 11.6643 9.25 11.2501V3.38782L6.34277 6.29504C6.04989 6.58787 5.57511 6.58787 5.28223 6.29504C4.98953 6.00215 4.98945 5.52733 5.28223 5.2345L9.1748 1.34192Z"
    fill="currentColor"
  />
</svg>

<svg xmlns="http://www.w3.org/2000/svg" width="20" height="20" fill="none" data-fui-icon="true" viewBox="0 0 20 20"><path fill="currentColor" d="M18.25 10a.75.75 0 0 1 .75.75v3.5A4.75 4.75 0 0 1 14.25 19h-8.5A4.75 4.75 0 0 1 1 14.25v-3.5a.75.75 0 0 1 1.5 0v3.5a3.25 3.25 0 0 0 3.25 3.25h8.5a3.25 3.25 0 0 0 3.25-3.25v-3.5a.75.75 0 0 1 .75-.75M9.175 1.342a1.167 1.167 0 0 1 1.561-.08l.09.08 3.892 3.892a.75.75 0 0 1-1.06 1.061L10.75 3.388v7.862a.75.75 0 0 1-1.5 0V3.388L6.343 6.295a.75.75 0 0 1-1.06-1.06z"/></svg>
